X:13
%%pagewidth 900pt
%%score 1 2
T:Yonder Comes a Courteous Knight.
M:6/8
L:1/8
K:G
V:1 clef-treble
V:2 clef-bass octave=-1
V:1 
[B,G]2G [DG]2D|[CF]2[B,G][A,A]3|A>Bc d2d & [DF]3 [DG]3|e>dc B3 & G3 G3|
w:Yon-der comes a cour-teous knight, Lus-ti-ly rak-ing o-ver the lay,
V:2
G,2z(B3|A2GF3)|c3B3|c3[Gd]3
V:1
G>GD (G>A)B/c/ & B,3 D3|d2c [DGB]2 B & [DA]3x3|[Gc]2c [GBd]2 [Gce]|c>d[GB] [FA]2 [DFA] & Fxx4|
w:He was well 'ware* of a bon-ny lass, As she came wand'-ring o-ver the way. Then
V:2
G,2z (B3|F3G2)F|E3D2C|A2G d2D,|
V:1
(B>A)G A>FD & [DG]x2 Dx2|[B,G]2[DFA] [DB]G [DFA]|(d>c)B A>AD &[DG]x [DG] [DF]x2|( c>B)A [DB]Gz & [DF] x2 x3 ||
w:she* sang down a down, hey down derry,* Then she* sang down a down, hey* down derry.*
V:2
G,3F,3|E,2D,G,2D,|B,2G, D3|D,3G,3||

